X:1
T:Title
%%score 1 { 2 | 3 }
L:1/8
Q:1/4=75
M:4/4
K:E
V:1 treble nm="Voice"
V:2 treble nm="Pianoforte"
V:3 bass 
V:1
"^Adagio" z8 | z8 | z8 | z4 z2 z C | E2 D2 C2 D E | F2 D2 C2 z G | B2 A2 G2 F E | (D2 E2) F2 z F | %8
 A2 G2 F2 G ^A | (B^A) (GF) B2 D2 | E4 z G F E | (G4 F2) z2 | z2 z C E2 D C | G3 G G3 G | %14
 G3 G c3 c | (c3 B) A2 z2 | z2 c2 ^A2 ^B c | ^^F3 F G2 z G | (G3 ^E) D2 ^^C2 | (^A4 D2) z2 | %20
 z2 ^B2 c2 G F | (F3 G) A3 F | (E2 D2) C2 E2 | D4 z4 | z4 z2 z C | E2 D2 C2 D E | F2 D2 C2 z G | %27
 B2 A2 G2 F E | (D2 E2) F2 z F | A2 G2 F2 G ^A | (B^A) (GF) B2 D2 | E4 z G F E | (G4 F2) z2 | %33
 z2 z C E2 D C | G3 G G3 G | G3 G c3 c | (c3 B) A2 z2 | z2 c2 ^A2 ^B c | ^^F3 F G2 z G | %39
 (G3 ^E) D2 ^^C2 | (^A4 D2) z2 | z2 ^B2 c2 G F | (F3 G) A3 F | (E2 D2) C2 E2 | %44
V:2
 z/ (G,/C/G/ e/G/C/G/ e/G/C/G/ e/G/C/G/) | z/ (^B,/G/^B/ g/B/G/B/ g/B/G/B/ g/B/G/B/) | %2
 z/ (C/G/c/ e/c/G/C/ e/G/C/G/ e/G/C/G/) | z/ (^B,/G/^B/ g/B/G/B/ g/B/G/B/ g/B/G/B/) | %4
 z/ (G,/C/G/ c/G/C/G/ d/G/C/G/ e/G/C/G/) | z/ (^B,/G/^B/ g/B/G/B/ g/c/G/c/ g/c/G/c/) | %6
 z/ (B,/D/B/ a/B/D/B/ g/B/D/B/ g/B/E/B/) | z/ (F/^A/f/ a/f/A/f/ ^a/f/A/f/ a/f/A/f/) | %8
 z/ (E/^A/e/ c'/e/c/e/ ^a/e/c/e/ a/e/c/e/) | z/ (d/f/b/ d'/f/d/f/) z/ (D/F/d/ f/d/F/d/) | %10
 z/ (G/c/g/ c'/g/c/g/) z/ (C/G/c/ g/c/G/c/) | z/ (F/A/f/ a/f/A/f/) z/ (G/^B/g/ ^b/g/B/g/) | %12
 z/ (C/E/c/ e/c/E/C/) z/ (C/E/c/ e/c/E/C/) | z/ (C/G/c/ g/c/G/C/) z/ (G/^B/g/ ^b/g/B/G/) | %14
 z/ (G/c/g/ c'/g/c/G/) z/ (E/G/e/ g/e/G/E/) | z/ (D/G/d/ g/d/G/D/) z/ (F/G/f/ g/f/G/F/) | %16
 z/ (E/G/e/ g/e/G/E/) z/ (E/G/e/ g/e/G/E/) | z/ (E/^^F/e/ ^^f/e/F/E/) z/ (D/G/d/ g/d/G/D/) | %18
 z/ (D/G/d/ g/d/G/D/) z/ (^^C/G/^^c/ g/c/G/C/) | z/ (C/^^F/c/ ^^f/c/F/C/) z/ (C/F/c/ f/c/F/C/) | %20
 z/ (D/G/d/ g/d/G/D/) z/ (E/G/e/ g/e/G/E/) | z/ (C/F/c/ f/c/F/C/) z/ (D/F/d/ f/d/F/D/) | %22
 z/ (C/E/c/ d/F/D/F/) z/ (C/E/c/ e/c/E/c/) | z/ (C/F/c/ f/c/F/C/) z/ (D/F/^B/ f/B/F/D/) | %24
 z/ (E,/C/E/ c/E/C/E/ c/E/C/E/ c/E/C/E/) | z/ (G,/C/G/ c/G/C/G/ d/G/C/G/ e/G/C/G/) | %26
 z/ (^B,/G/^B/ g/B/G/B/ g/c/G/c/ g/c/G/c/) | z/ (B,/D/B/ a/B/D/B/ g/B/D/B/ g/B/E/B/) | %28
 z/ (F/^A/f/ a/f/A/f/ ^a/f/A/f/ a/f/A/f/) | z/ (E/^A/e/ c'/e/c/e/ ^a/e/c/e/ a/e/c/e/) | %30
 z/ (d/f/b/ d'/f/d/f/) z/ (D/F/d/ f/d/F/d/) | z/ (G/c/g/ c'/g/c/g/) z/ (C/G/c/ g/c/G/c/) | %32
 z/ (F/A/f/ a/f/A/f/) z/ (G/^B/g/ ^b/g/B/g/) | z/ (C/E/c/ e/c/E/C/) z/ (C/E/c/ e/c/E/C/) | %34
 z/ (C/G/c/ g/c/G/C/) z/ (G/^B/g/ ^b/g/B/G/) | z/ (G/c/g/ c'/g/c/G/) z/ (E/G/e/ g/e/G/E/) | %36
 z/ (D/G/d/ g/d/G/D/) z/ (F/G/f/ g/f/G/F/) | z/ (E/G/e/ g/e/G/E/) z/ (E/G/e/ g/e/G/E/) | %38
 z/ (E/^^F/e/ ^^f/e/F/E/) z/ (D/G/d/ g/d/G/D/) | z/ (D/G/d/ g/d/G/D/) z/ (^^C/G/^^c/ g/c/G/C/) | %40
 z/ (C/^^F/c/ ^^f/c/F/C/) z/ (C/F/c/ f/c/F/C/) | z/ (D/G/d/ g/d/G/D/) z/ (E/G/e/ g/e/G/E/) | %42
 z/ (C/F/c/ f/c/F/C/) z/ (D/F/d/ f/d/F/D/) | z/ (C/E/c/ d/F/D/F/) z/ (C/E/c/ e/c/E/c/) | %44
V:3
!ped! [C,,C,]8 | [C,,C,]8!ped-up! |!ped! [C,,C,]8 | [C,,C,]8!ped-up! |!ped! [C,,C,]8 | %5
 [C,,C,]8!ped-up! |!ped! [B,,,B,,]8 | [B,,,B,,]8!ped-up! |!ped! [F,,F,]8 | %9
 [B,,,B,,]4 [B,,,B,,]4!ped-up! |!ped! [E,,E,]8!ped-up! | %11
!ped! [D,,D,]4!ped-up!!ped! [G,,G,]4!ped-up! |!ped! [A,,,A,,]4!ped-up!!ped! [^A,,,^A,,]4!ped-up! | %13
!ped! [E,,E,]4!ped-up!!ped! [D,,D,]4!ped-up! |!ped! [C,,C,]4!ped-up!!ped! [^A,,,^A,,]4!ped-up! | %15
!ped! [B,,,B,,]4!ped-up!!ped! [^B,,,^B,,]4!ped-up! |!ped! [C,,C,]4!ped-up!!ped! [C,,C,]4!ped-up! | %17
!ped! [C,,C,]4!ped-up!!ped! [B,,,B,,]4!ped-up! | %18
!ped! [B,,,B,,]4!ped-up!!ped! [^A,,,^A,,]4!ped-up! | %19
!ped! [D,,D,]4!ped-up!!ped! [^A,,,^A,,]4!ped-up! |!ped! [G,,,G,,]4!ped-up!!ped! [C,,C,]4!ped-up! | %21
!ped! [A,,,A,,]4!ped-up!!ped! [^B,,,^B,,]4!ped-up! | %22
!ped! [G,,,G,,]4!ped-up!!ped! [A,,,A,,]4!ped-up! |!ped! [D,,D,]4!ped-up!!ped! [G,,,G,,]4!ped-up! | %24
!ped! [C,,C,]8!ped-up! |!ped! [C,,C,]8!ped-up! |!ped! [C,,C,]8!ped-up! |!ped! [B,,,B,,]8!ped-up! | %28
!ped! [B,,,B,,]8!ped-up! |!ped! [F,,F,]8!ped-up! |!ped! [B,,,B,,]4 [B,,,B,,]4!ped-up! | %31
!ped! [E,,E,]8!ped-up! |!ped! [D,,D,]4!ped-up!!ped! [G,,G,]4!ped-up! | %33
!ped! [A,,,A,,]4!ped-up!!ped! [^A,,,^A,,]4!ped-up! |!ped! [E,,E,]4!ped-up!!ped! [D,,D,]4!ped-up! | %35
!ped! [C,,C,]4!ped-up!!ped! [^A,,,^A,,]4!ped-up! | %36
!ped! [B,,,B,,]4!ped-up!!ped! [^B,,,^B,,]4!ped-up! |!ped! [C,,C,]4!ped-up!!ped! [C,,C,]4!ped-up! | %38
!ped! [C,,C,]4!ped-up!!ped! [B,,,B,,]4!ped-up! | %39
!ped! [B,,,B,,]4!ped-up!!ped! [^A,,,^A,,]4!ped-up! | %40
!ped! [D,,D,]4!ped-up!!ped! [^A,,,^A,,]4!ped-up! |!ped! [G,,,G,,]4!ped-up!!ped! [C,,C,]4!ped-up! | %42
!ped! [A,,,A,,]4!ped-up!!ped! [^B,,,^B,,]4!ped-up! | %43
!ped! [G,,,G,,]4!ped-up!!ped! [A,,,A,,]4!ped-up! | %44

